icons/spleen_fill.svg

<svg width="48" height="48" viewBox="0 0 48 48" fill="none" xmlns="http://www.w3.org/2000/svg">
<path fill-rule="evenodd" clip-rule="evenodd" d="M17.6573 24.1494C17.7246 24.1176 17.7921 24.0866 17.8597 24.0566C17.8744 24.0528 17.8891 24.0487 17.9038 24.0442C18.2105 23.9496 18.5131 23.9929 18.8995 24.2052C19.3176 24.4349 19.7507 24.8176 20.2627 25.3094C20.338 25.3817 20.4156 25.4571 20.4953 25.5345C20.9161 25.943 21.3936 26.4066 21.8771 26.7623C22.4591 27.1903 23.2153 27.5918 24.102 27.51C24.6435 27.4601 25.0369 26.9675 24.9806 26.4098C24.9243 25.852 24.4396 25.4403 23.898 25.4903C23.7081 25.5078 23.4383 25.4345 23.0088 25.1186C22.6469 24.8523 22.2891 24.5059 21.8667 24.0968C21.7799 24.0127 21.6904 23.926 21.5975 23.8367C21.4269 23.6729 21.245 23.5007 21.0528 23.3301C21.6504 23.3109 22.2815 23.347 22.9592 23.4392C23.4999 23.5128 23.99 23.1225 24.0538 22.5673C24.1176 22.0122 23.731 21.5025 23.1903 21.4289C20.6609 21.0846 18.5664 21.4142 16.5372 22.4394C16.3013 22.5586 16.067 22.6869 15.8336 22.824C16.3641 23.2319 16.9114 23.6297 17.4702 24.0155C17.5344 24.0598 17.5967 24.1045 17.6573 24.1494C17.5803 24.1858 17.5037 24.2232 17.427 24.262C15.7354 25.1166 14.0443 26.571 11.929 28.7256C11.545 29.1168 10.9207 29.1092 10.5348 28.7085C10.1489 28.3078 10.1474 27.6659 10.5314 27.2747C12.4187 25.3523 14.0998 23.843 15.8336 22.824C9.49261 17.9485 5.5615 11.6269 13.2068 6.92468C29.0229 -2.80285 44.1106 26.8325 33.3957 40.2891C32.1545 41.8479 27.3584 47.187 21.2551 44.0076C14.2681 40.3677 16.1932 36.1004 17.9653 32.1722C19.3285 29.1507 20.6011 26.3297 17.6573 24.1494ZM27.3895 23.1519C26.2082 19.0758 23.3614 15.2778 19.3407 11.752L20.6593 10.2483C24.8401 13.9144 27.984 18.0184 29.3105 22.5952C30.6475 27.2085 30.1038 32.1861 27.1229 37.4901L25.3794 36.5102C28.1288 31.6182 28.5603 27.1917 27.3895 23.1519Z" fill="black"/>
</svg>

<svg
  xmlns="http://www.w3.org/2000/svg"
  width="24"
  height="24"
  viewBox="0 0 24 24"
  fill="none"
  stroke="currentColor"
  stroke-width="2"
  stroke-linecap="round"
  stroke-linejoin="round"
>
  <path
    fill-rule="evenodd"
    d="M17.657 24.15q.102-.048.203-.093l.044-.013c.306-.094.61-.051.995.161.419.23.852.613 1.364 1.104l.232.226c.421.408.899.872 1.382 1.227.582.428 1.338.83 2.225.748.541-.05.935-.543.879-1.1-.057-.558-.541-.97-1.083-.92-.19.018-.46-.055-.89-.371-.361-.267-.719-.613-1.141-1.022l-.27-.26c-.17-.164-.352-.336-.544-.507.597-.02 1.229.017 1.906.11a.975.975 0 0 0 1.095-.873 1.026 1.026 0 0 0-.864-1.138c-2.53-.344-4.624-.015-6.653 1.01q-.354.18-.703.385.796.613 1.636 1.191zl-.23.113c-1.692.855-3.383 2.309-5.498 4.464a.967.967 0 0 1-1.394-.017 1.034 1.034 0 0 1-.004-1.434c1.888-1.923 3.569-3.432 5.303-4.451-6.341-4.876-10.272-11.197-2.627-15.9C29.023-2.802 44.11 26.834 33.396 40.29c-1.242 1.559-6.038 6.898-12.14 3.719-6.988-3.64-5.063-7.908-3.29-11.836 1.362-3.021 2.635-5.842-.309-8.023m9.733-.998c-1.182-4.076-4.029-7.874-8.05-11.4l1.32-1.504c4.18 3.666 7.324 7.77 8.65 12.347 1.338 4.614.794 9.591-2.187 14.895l-1.744-.98c2.75-4.892 3.181-9.318 2.01-13.358"
    clip-rule="evenodd"
  />
</svg>
